!!!!SEGMENT: pl-kc--40102-iii-1-saf--002-057_zielenski-mikolaj--communiones-totius-anni-motteto-a-6-contere-domine.krn
!!!cenid: 16xx:1588
!!!COM: Zieleński, Mikołaj
!!!COM-rismID: pe30013481
!!!CDT: <1611->1611
!!!CNT: Polish
!!!GTL: Communiones totius anni
!!!OTL: Motteto a 6./Contere Domine
!!!OMV: 057
!!!PDT: 1611
!!!AGN: Sacred
!!!YEC: Copyright 2022 Narodowy Instytut Fryderyka Chopina (https://polishscores.org)
!!!YEM: License CC-BY-4.0 (https://creativecommons.org/licenses/by/4.0)
!!!SMS-siglum: PL-Kc
!!!SMS-shelfmark: 40102 III/1 Saf.
!!!SMS-shelfwork: 002-057 G
!!!SMS-variant:
!!!SMS-altvar:
!!!NIFC-rismSourceID: 990069887
!!!NIFC-rismChildID: 990069887
!!!NIFC-islandoraID: none
!!!URL-pdf-islandora:
!!!URL-scan: https://cyfrowe.mnk.pl/dlibra/publication/24235/edition/23926/content?ref=desc @EN{Scan on The National Museum in Krakow Website} @PL{Skany w portalu Biblioteka Cyfrowa Muzeum Narodowego w Krakowie}
!!!IIIF:
!!!ONB-nifc: UWAGA: str. 77. Numer w źródle: 66. Uwaga: W xml metrum 2/1 do źródłowego C| i odpowiednio 3/1 do 3/2
!!!AIN: 4 organ
!!!key:
**kern	**kern	**kern	**kern
*group1	*group1	*group1	*group1
*part4	*part3	*part2	*part1
*staff4	*staff3	*staff2	*staff1
*I""Organo	*I""Organo	*I""Organo	*I""Organo
*I''org	*I''org	*I''org	*I''org
*Iorgan	*Iorgan	*Iorgan	*Iorgan
*ICklav	*ICklav	*ICklav	*ICklav
*clefF4	*clefC4	*clefC3	*clefC1
*k[]	*k[]	*k[]	*k[]
*G:	*G:	*G:	*G:
*M2/1	*M2/1	*M2/1	*M2/1
*met(C|)	*met(C|)	*met(C|)	*met(C|)
=1	=1	=1	=1
*	*lig	*	*
!	!	!LO:TX:a:t=Contere Domine	!LO:TX:a:t=Motteto à 6.
00r	1G	0r	00r
*	*col	*	*
.	2.A\	.	.
*	*Xlig	*	*
.	4G/	.	.
*	*Xcol	*	*
=2-	=2-	=2-	=2-
*	*	*lig	*
.	4A/	1c	.
.	4B\	.	.
.	1c	.	.
*	*	*col	*
.	.	2.e\	.
.	[<2C/	.	.
*	*	*Xlig	*
.	.	4d\	.
*	*	*Xcol	*
=3	=3	=3	=3
*	*	*	*lig
00r	2C/]	4e\	1g
.	.	4f\	.
.	2E/	1g	.
*	*	*	*col
.	2.D/	.	2.a\
.	.	2f\	.
*	*	*	*Xlig
.	4E/	.	4g/
*	*	*	*Xcol
=4-	=4-	=4-	=4-
.	4F/	2f\	4a\
.	4G/	.	4b\
.	4A/	2e\	2.cc\
.	4E/	.	.
.	2F/	2d\	.
!	!	!	!LO:N:vis=4
.	.	.	8b\
.	.	.	8a\
.	2G/	2d\	2b\
=5	=5	=5	=5
*lig	*	*	*
1C	4G/	2.e\	2cc\
.	4F/	.	.
.	4E/	.	1cc
.	4D/	4f\	.
*col	*	*	*
2.E\	2C/	4g\	.
.	.	4f\	.
.	1c	2.e\	2.g/
*Xlig	*	*	*
4D/	.	.	.
*Xcol	*	*	*
=6-	=6-	=6-	=6-
4E\	.	.	.
4F#X\	.	8d\	4a\
.	.	8c\	.
2G\	2.B\	4d\	4b\
.	.	4e\	4cc#X\
2D/	.	4f#X\	2dd\
.	8A/	2g\	.
.	8G/	.	.
2D/	2A/	.	2dd\
.	.	4f#X\	.
=7	=7	=7	=7
*lig	*	*	*
1GG	1G	2.g\	1b
.	.	4f\	.
*col	*	*	*
2.AA/	2r	4e\	2.cc\
.	.	4d\	.
.	2C/	2.e\	.
*Xlig	*	*	*
4GG/	.	.	4b\
*Xcol	*	*	*
=8-	=8-	=8-	=8-
4AA/	2.E/	.	2a\
4BB/	.	4d\	.
1C	.	4e\	2g/
.	4D/	4f\	.
.	4E/	2g\	2g/
.	4F/	.	.
2BB/	4G/	2G/	2g/
.	4D/	.	.
=9	=9	=9	=9
2AA/	1.A	2c/	2.a\
2.FF/	.	1f	.
.	.	.	4g/
.	.	.	4a\
4GG/	.	.	4b\
4AA/	2A/	1e	1cc
4BB/	.	.	.
=10-	=10-	=10-	=10-
2C/	1G	.	.
2GG/	.	2.g\	2b\
(<1D	(<1A	.	2a\
.	.	8f#X\	.
.	.	8e\	.
.	.	2f#\	[<2dd\
=11	=11	=11	=11
!	!	!LO:SIC:v:s=2G/	!
1GG)	1.G)	2F/	2dd\]
.	.	4G/	2.g/
.	.	4A/	.
1r	.	4B/	.
.	.	4c/	4a\
.	2G/	2d\	4b\
.	.	.	4cc\
=12-	=12-	=12-	=12-
0r	2F/	2d\	4dd\
.	.	.	4a\
.	2D/	2f\	1dd
.	2.E/	2e\	.
.	.	2e\	[y2cc\
.	4F/	.	.
=13	=13	=13	=13
*lig	*	*	*
!	!	!	!LO:N:xstem:cue
1GG	2G/	2.d\	4cc\]
.	.	.	8b\
.	.	.	8a\
.	2G/	.	2b\
.	.	4d\	.
*col	*	*	*
2.AA/	2C/	2c/	2cc\
.	1E	2.c/	2.e/
*Xlig	*	*	*
4GG/	.	.	.
*Xcol	*	*	*
=14-	=14-	=14-	=14-
4AA/	.	.	.
4BB/	.	8B/	4d/
.	.	8A/	.
2C/	1E	2e\	4e/
.	.	.	4f#X/
2C/	.	2e\	4g/
.	.	.	4a\
[y2GG/	[<2D/	[<2g\	4b\
.	.	.	4cc\
=15	=15	=15	=15
!LO:N:xstem:cue	!	!	!
4GG/]	2D/]	2g\]	2dd\
4AA/	.	.	.
4BB/	1d	2g\	2dd\
4C/	.	.	.
2D/	.	2f\	2dd\
2D/	2d\	2f\	2a\
=16-	=16-	=16-	=16-
2AA/	2c\	1e	2cc\
2AA/	4C/	.	2cc\
.	4D/	.	.
2C/	4E/	2e\	2g/
.	4F/	.	.
2C/	4G/	2e\	2g/
.	4E/	.	.
=17	=17	=17	=17
1FF	4F/	2.c/	2.a\
.	4G/	.	.
.	4A/	.	.
.	4B\	4B/	4g/
2FF/	2c\	2A/	4a\
.	.	.	4b\
2FF/	2F/	2A/	2.cc\
=18-	=18-	=18-	=18-
1C	1.G	2.e\	.
.	.	.	8b\
.	.	.	8a\
.	.	.	4g\
.	.	4f\	4a\
2GG/	.	4g\	4b\
.	.	4a\	4cc\
2GG/	2G/	(<2e\	[<2dd\
=19	=19	=19	=19
1D	1A	4g\)	2dd\]
.	.	8f#X\	.
.	.	8e\	.
.	.	2f#\	2a\
1GG	2d\	1g	2b\
.	2.G/	.	2dd\
=20-	=20-	=20-	=20-
1D	.	2r	2dd\
.	8F#X/	.	.
.	8E/	.	.
.	2F#/	2d\	2dd\
[<1G	4G/	2d\	2b\
.	4A/	.	.
.	4B\	2d\	2dd\
.	4c\	.	.
*custos:G	*custos:d	*custos:B	*custos:dd
!!LO:LB:g=original
=21	=21	=21	=21
1G]	2d\	2B/	2dd\
.	2d\	4A/	2dd\
.	.	4G/	.
0r	2G/	2d\	4b\
.	.	.	4g/
.	4F/	2e\	2.cc\
.	4E/	.	.
=22-	=22-	=22-	=22-
.	2F/	1d	.
.	.	.	8b\
.	.	.	8a\
.	2G/	.	2b\
2r	2C/	1r	1cc
2C/	2C/	.	.
=23	=23	=23	=23
2C/	1G	2r	4e/
.	.	.	4f/
2C/	.	2g\	4g/
.	.	.	4a\
2BB/	2.D/	2g\	4b\
.	.	.	4a\
2GG/	.	2g\	2dd\
.	4E/	.	.
=24-	=24-	=24-	=24-
1D	4F/	2f\	2dd\
.	4E/	.	.
.	4F/	2d\	2dd\
.	4G/	.	.
2r	4A/	2.g\	2cc\
.	4B\	.	.
2AA/	2c\	.	[y2a\
.	.	4A/	.
=25	=25	=25	=25
!	!	!	!LO:N:xstem:cue
2AA/	2A/	4c/	4a\]
.	.	4d\	4b\
2AA/	2E/	2e\	4cc\
.	.	.	4b\
2FF/	2.F/	2.A/	4a\
.	.	.	4g/
2.F\	.	.	2a\
.	4G/	4B/	.
=26-	=26-	=26-	=26-
.	2A/	2c/	4a\
4E\	.	.	4g/
4D/	2A/	2d\	4f/
4C/	.	.	4e/
2BB-X/	2D/	2d\	4f/
.	.	.	4d/
4AA/	[<2d\	[y2g\	2b\
4GG/	.	.	.
=27	=27	=27	=27
*lig	*	*	*
!	!	!LO:N:xstem:cue	!
1D	2d\]	4g\]	2a\
.	.	4f\	.
.	2A/	4f\	2.dd\
.	.	8e\	.
.	.	8d\	.
1AA	1A	1e	.
.	.	.	8cc#X\
.	.	.	8b\
.	.	.	2cc#\
*Xlig	*	*	*
=28-	=28-	=28-	=28-
1D	2.A/	2f#X\	2.dd\
.	.	2.a\	.
.	2d\	.	2a\
1r	.	.	.
.	4B\	4d\	4b\
.	2A/	4e\	2ccny\
.	.	8d\	.
.	.	8c\	.
=29	=29	=29	=29
2r	2.G/	2.d\	2.b\
4r	.	.	.
2D/	2F/	2A/	2dd\
4AA/	2A/	2e\	4cc\
2E\	.	.	2b\
.	4G#X/	4B/	.
=30-	=30-	=30-	=30-
2AA/	4A/	4c/	4a\
.	2A/	2e\	2cc\
2r	.	.	.
.	4E/	4e\	4b\
2r	2F/	2c/	2a\
4r	4C/	4c/	4g/
[<4C/	[<4Gny/	[<4e\	[<4cc\
=31	=31	=31	=31
4C/]	4G/]	4e\]	4cc\]
4GG/	4d\	2g\	4b\
2D/	2d\	.	4a\
.	.	4f#X\	2dd\
4GG/	4d\	1g	.
2G\	4G/	.	4b\
.	2C/	.	2.cc\
4E\	.	.	.
=32-	=32-	=32-	=32-
!LO:SIC:v:s=4F#\	!	!	!
4F\	1D	4r	.
!LO:SIC:v:s=2Gn\	!	!	!
2G#X\	.	2d\	4b\
.	.	.	2a\
!LO:SIC:v:s=4F#\	!	!	!
4F\	.	4A/	.
2Gny\	2E/	2e\	2g/
[<2C/	4A/	4e\	[<2cc\
.	[<4G/	[<4g\	.
=33	=33	=33	=33
4C/]	8G/]	4g\]	4cc\]
.	8E/	.	.
4AA/	4A/	2a\	4ee\
2E\	2B\	.	2ee\
.	.	4g#X\	.
1AA	2A/	2a\	2ee\
.	1c	2e\	1ee
=34-	=34-	=34-	=34-
0r	.	2.gny\	.
.	2G/	.	2dd\
.	.	4f\	.
.	2A/	1e	2cc\
.	2E/	.	2b\
=35	=35	=35	=35
0r	1F	2A/	2a\
.	.	1f	1dd
.	0G	.	.
.	.	2e\	2.cc\
=36-	=36-	=36-	=36-
1r	.	1d	.
.	.	.	8b\
.	.	.	8a\
.	.	.	2b\
2r	2C/	1g	2cc\
[<2C/	[<2e\	.	[<2cc\
=37	=37	=37	=37
2C/]	2e\]	2g\	2cc\]
2GG/	2d\	2.e\	2b\
2AA/	2c\	.	2a\
.	.	4d\	.
2E\	2B\	4c/	2g#X/
.	.	4A/	.
=38-	=38-	=38-	=38-
2.F\	2A/	2.c/	2.a\
.	1A	.	.
4E\	.	8B/	4gny/
.	.	8A/	.
2D/	.	1B	2f/
2D/	4G/	.	2f/
.	4F/	.	.
=39	=39	=39	=39
1C	0G	1c	2e/
.	.	.	2g/
1r	.	1d	4g/
.	.	.	4a\
.	.	.	4b\
.	.	.	4cc\
=40-	=40-	=40-	=40-
0r	1.G	2r	2b\
.	.	2G/	1dd
.	.	4G/	.
.	.	4A/	.
.	2G/	4B/	4g/
.	.	4c/	4a\
=41	=41	=41	=41
2r	4G/	1d	4b\
.	4A/	.	4cc\
2GG/	4B\	.	2dd\
.	4c\	.	.
4GG/	2.d\	1B	2.d/
4AA/	.	.	.
4BB/	.	.	.
4C/	8c\	.	4e/
.	8B\	.	.
=42-	=42-	=42-	=42-
1D	4A/	2r	4f#X/
.	4G/	.	2g/
.	2A/	2d\	.
.	.	.	4f#/
*custos:GG	*custos:G	*custos:d	*custos:g
!!LO:LB:g=original
2GG/	2G/	4d\	4g/
.	.	4c/	4a\
2G\	4G/	4B/	4b\
.	4A/	4A/	4cc\
=43	=43	=43	=43
2.G\	4B\	2G/	2dd\
.	4c\	.	.
.	2d\	2g\	2g/
4F\	.	.	.
4E\	2G/	4g\	2g/
4D/	.	4f\	.
1C	2c\	4e\	2ee\
.	.	4d\	.
=44-	=44-	=44-	=44-
.	2c\	2c/	4ee\
.	.	.	4dd\
2E\	2G/	2.c/	4cc\
.	.	.	4b\
2.F\	2A/	.	2a\
.	.	4A/	.
.	2f\	2a\	[y2dd\
8E\	.	.	.
8D\	.	.	.
=45	=45	=45	=45
!	!	!	!LO:N:xstem:cue
2E\	1e	2g\	4dd\]
.	.	.	8cc#X\
.	.	.	8b\
2E\	.	1g	2cc#\
1D	2A/	.	2.dd\
.	2d\	4f#X\	.
.	.	4e\	8ccny\
.	.	.	8b\
=46-	=46-	=46-	=46-
2r	4d\	2f#y\	2a\
.	4c\	.	.
2G\	4B\	2g\	2dd\
.	4A/	.	.
2.G\	2.B\	[y1d	1dd
4A\	4A/	.	.
=47	=47	=47	=47
!	!	!LO:N:xstem:cue:vis=4	!
2B\	2G/	2d\]	2dd\
2D/	1A	1f#X	1a
4D/	.	.	.
4C/	.	.	.
4BB/	2D/	2f#\	2.dd\
4AA/	.	.	.
=48-	=48-	=48-	=48-
1GG	1D	1g	.
.	.	.	4cc\
.	.	.	4b\
.	.	.	4a\
2.C/	[<1E	2r	4g/
.	.	.	4e/
.	.	[<2e\	[<2cc\
4BB/	.	.	.
=49	=49	=49	=49
1AA	2E/]	4e\]	4cc\]
.	.	4d\	4b\
.	4A/	4c/	2.a\
.	4G/	4B/	.
2D/	4F/	2A/	.
.	4D/	.	4a\
2GG/	2d\	2B/	2.g/
=50-	=50-	=50-	=50-
1D	2d\	2.A/	.
.	.	.	8f#X/
.	.	.	8e/
.	2d\	.	2f#/
.	.	8G/	.
.	.	8A/	.
[y1GG	4d\	4B/	2g/
.	4c\	4A/	.
.	4B\	4G/	2g/
.	4A/	4A/	.
=51	=51	=51	=51
!LO:N:xstem:cue:vis=4	!	!	!
2GG/]	2.G/	4B/	4g/
.	.	4c/	4a\
1G	.	1d	4b\
.	4A/	.	4cc\
.	4B\	.	4dd\
.	4G/	.	4b\
2C/	2.c\	2.e\	2cc\
=52-	=52-	=52-	=52-
4C/	.	.	2.ee\
4D/	8B\	4f\	.
.	8A\	.	.
4E\	4G/	4g\	.
4F\	4A/	8f\	8dd\
.	.	8e\	8cc\
2G\	2B\	2d\	2b\
2D/	2A/	2f\	[y2dd\
=53	=53	=53	=53
!	!	!	!LO:N:xstem:cue
2E\	0G	1e	4dd\]
.	.	.	4cc\
4D/	.	.	2.cc\
4C/	.	.	.
1G	.	1d	.
.	.	.	8b\
.	.	.	8a\
.	.	.	2b\
=54-	=54-	=54-	=54-
2C/	2r	2e\	2cc\
2.C/	2.G/	2.g\	2.ee\
4C/	4G/	4g\	4ee\
2BB/	2G/	2g\	2dd\
=55	=55	=55	=55
2C/	4G/	2g\	2cc\
.	4A/	.	.
2GG/	4B\	2g\	1dd
.	4G/	.	.
0.D	1A	2d\	.
.	.	1a	2cc\
=56-	=56-	=56-	=56-
*	*	*	*lig
.	2.B\	.	1b
.	.	1g	.
.	4c\	.	.
.	1d	.	1a
.	.	2f#X\	.
*	*	*	*Xlig
=57-	=57-	=57-	=57-
!LO:TX:b:t=F I N I S.	!	!	!
0GGl	0dl	0gl	0bl
==	==	==	==
*-	*-	*-	*-
!!!system-decoration: *
!!!RDF**kern: > = above
!!!RDF**kern: < = below
!!!RDF**kern: l = terminal long
!!!ENC: Andrzej Gręziak
!!!END: 2021-12-23
!!!ENC: Andrzej Kubiczek
!!!END: 2021-12-27
